img/Parceiros/surfbot.svg

<svg width="200" height="49" viewBox="0 0 200 49" fill="none" xmlns="http://www.w3.org/2000/svg">
<g clip-path="url(#clip0_6_53)">
<path d="M54.3812 44.0141C51.0612 44.0141 48.5162 43.4461 46.7452 42.3101C45.0052 41.1421 44.1362 39.4371 44.1362 37.1961C44.1362 36.0601 44.5162 35.1281 45.2742 34.4021C46.0652 33.6451 47.0772 33.2661 48.3102 33.2661C49.0372 33.2981 49.5902 33.4861 49.9702 33.8341C50.3502 34.1501 50.5402 34.4501 50.5402 34.7341C50.5402 34.7651 50.3812 34.8761 50.0652 35.0651C49.7492 35.2551 49.4652 35.5391 49.2112 35.9171C48.9582 36.2971 48.8312 36.8171 48.8312 37.4801C48.8312 38.9641 49.2752 40.1161 50.1602 40.9371C51.0772 41.7261 52.4842 42.1201 54.3812 42.1201C55.6782 42.1201 56.8162 41.8681 57.7972 41.3631C58.7772 40.8581 59.5202 40.1951 60.0262 39.3741C60.5632 38.5221 60.8322 37.6381 60.8322 36.7221C60.8322 35.5861 60.5002 34.6081 59.8362 33.7871C59.1913 32.9555 58.3848 32.2629 57.4652 31.7511C56.5152 31.1831 55.2192 30.5351 53.5752 29.8091C51.6782 28.9571 50.1452 28.1841 48.9752 27.4891C47.7995 26.7902 46.7814 25.8552 45.9852 24.7431C45.1642 23.5751 44.7532 22.1391 44.7532 20.4341C44.7532 17.6881 45.6852 15.6361 47.5512 14.2791C49.4492 12.9211 51.9312 12.2431 54.9982 12.2431C57.4012 12.2431 59.4882 12.7481 61.2592 13.7581C63.0622 14.7681 63.9632 16.2521 63.9632 18.2081C63.9632 19.3451 63.5672 20.2921 62.7772 21.0501C62.0182 21.7761 61.0222 22.1391 59.7892 22.1391C59.0612 22.1071 58.5082 21.9331 58.1292 21.6181C57.7492 21.2711 57.5592 20.9551 57.5592 20.6711C57.5592 20.6391 57.7652 20.5291 58.1762 20.3391C58.6192 20.1501 58.9982 19.8661 59.3142 19.4871C59.6622 19.1081 59.8362 18.5871 59.8362 17.9251C59.8362 16.7571 59.3782 15.8411 58.4612 15.1781C57.5752 14.5151 56.4372 14.1841 55.0452 14.1841C53.1172 14.1841 51.6462 14.6421 50.6352 15.5571C49.6542 16.4411 49.1642 17.5461 49.1642 18.8721C49.1642 19.9761 49.4642 20.9081 50.0652 21.6651C50.6652 22.3911 51.6302 23.1171 52.9582 23.8431C54.1098 24.4486 55.2804 25.0172 56.4682 25.5481C58.4922 26.4631 60.0892 27.3001 61.2592 28.0581C62.4639 28.8188 63.4845 29.8377 64.2472 31.0411C65.0692 32.2711 65.4812 33.8031 65.4812 35.6331C65.4812 37.2121 64.9752 38.6481 63.9632 39.9431C62.9832 41.2051 61.6382 42.1991 59.9312 42.9251C58.2552 43.6511 56.4052 44.0151 54.3812 44.0151V44.0141ZM78.3942 43.6361C76.2442 43.6361 74.5362 42.9881 73.2712 41.6941C72.0062 40.4001 71.3742 38.6951 71.3742 36.5801V27.8201C71.3742 27.0001 71.3422 26.4001 71.2792 26.0211C71.2482 25.6431 71.0582 25.3111 70.7092 25.0271C70.3622 24.7431 69.7772 24.6011 68.9552 24.6011C68.5752 24.6011 68.2912 24.5541 68.1012 24.4591C67.9112 24.3331 67.8172 24.0641 67.8172 23.6541C67.8172 23.4641 67.8802 23.2911 68.0072 23.1341C68.1332 22.9441 68.3232 22.8341 68.5762 22.8021C70.5682 22.5171 72.2762 22.1071 73.6982 21.5701C74.1412 21.4131 74.5042 21.3181 74.7892 21.2861H74.9312C75.4372 21.2861 75.6912 21.5861 75.6912 22.1861V36.5331C75.6912 37.9851 76.1492 39.1061 77.0662 39.8951C77.9551 40.6425 79.083 41.0456 80.2442 41.0311C81.7302 41.0311 82.9942 40.6681 84.0382 39.9421C85.0822 39.2161 85.7782 38.4901 86.1252 37.7641V27.8211C86.1252 27.0001 86.0942 26.4011 86.0312 26.0211C85.9992 25.6431 85.8092 25.3111 85.4612 25.0271C85.1132 24.7431 84.5282 24.6011 83.7062 24.6011C83.3262 24.6011 83.0422 24.5541 82.8532 24.4591C82.6632 24.3331 82.5682 24.0641 82.5682 23.6541C82.5682 23.4641 82.6312 23.2911 82.7582 23.1341C82.8842 22.9441 83.0742 22.8341 83.3272 22.8021C85.3192 22.5171 87.0272 22.1071 88.4502 21.5701C88.8922 21.4131 89.2562 21.3181 89.5402 21.2861H89.6832C90.1892 21.2861 90.4422 21.5861 90.4422 22.1861V38.5701C90.4422 40.4331 91.6912 41.3641 94.1892 41.3641C94.7262 41.3641 94.9952 41.6641 94.9952 42.2641C94.9952 42.7051 94.7262 42.9741 94.1892 43.0681L86.5522 43.5891C86.3312 43.5891 86.2042 43.5101 86.1722 43.3531C86.1422 43.2261 86.1252 42.9901 86.1252 42.6431V39.9901H86.0312C85.3053 40.672 84.5617 41.3349 83.8012 41.9781C83.2322 42.4201 82.4892 42.7991 81.5712 43.1151C80.6862 43.4621 79.6272 43.6351 78.3942 43.6351V43.6361ZM97.5902 43.2101C97.4797 43.2096 97.3708 43.1836 97.2719 43.1342C97.1731 43.0848 97.0869 43.0132 97.0202 42.9251C96.8942 42.7361 96.8302 42.5151 96.8302 42.2631C96.8622 41.8531 96.9572 41.6151 97.1152 41.5531C97.2742 41.4581 97.5582 41.4101 97.9692 41.4101C98.7912 41.4101 99.3762 41.2681 99.7242 40.9841C100.072 40.7001 100.262 40.3681 100.293 39.9901C100.357 39.6101 100.388 39.0111 100.388 38.1901V27.3471C100.388 26.5271 100.357 25.9271 100.293 25.5471C100.262 25.1691 100.072 24.8371 99.7242 24.5541C99.3762 24.2701 98.7912 24.1271 97.9692 24.1271C97.5892 24.1271 97.3052 24.0801 97.1162 23.9851C96.9262 23.8591 96.8312 23.5911 96.8312 23.1801C96.8312 22.9911 96.8942 22.8171 97.0212 22.6601C97.1472 22.4701 97.3372 22.3601 97.5902 22.3281C99.6452 22.0121 101.337 21.6021 102.665 21.0971C103.203 20.9391 103.566 20.8441 103.756 20.8131H103.898C104.404 20.8131 104.657 21.1131 104.657 21.7131V24.6481H104.799C105.906 23.5431 107.029 22.6751 108.167 22.0441C109.306 21.3811 110.333 21.0501 111.25 21.0501C112.294 21.0501 113.116 21.4441 113.717 22.2331C114.349 22.9911 114.665 23.8751 114.665 24.8851C114.665 25.7691 114.397 26.5581 113.859 27.2521C113.321 27.9471 112.578 28.2941 111.63 28.2941C111.217 28.3013 110.809 28.2036 110.444 28.0101C110.128 27.8201 109.954 27.6631 109.922 27.5371C109.954 27.4741 110.112 27.2841 110.396 26.9681C110.681 26.6211 110.823 26.2271 110.823 25.7851C110.823 25.2161 110.665 24.7591 110.349 24.4121C110.064 24.0641 109.669 23.8911 109.163 23.8911C108.626 23.8911 107.946 24.1591 107.124 24.6961C106.301 25.2011 105.495 25.8481 104.705 26.6371V38.1901C104.705 39.0111 104.736 39.6101 104.799 39.9901C104.863 40.3681 105.068 40.7001 105.416 40.9841C105.764 41.2681 106.349 41.4101 107.171 41.4101H107.456C107.709 41.4101 107.898 41.4581 108.025 41.5521C108.151 41.6471 108.23 41.8841 108.262 42.2621C108.262 42.5151 108.199 42.7361 108.072 42.9251C107.946 43.1151 107.756 43.2101 107.503 43.2101C105.845 43.12 104.184 43.0723 102.523 43.0671C101.1 43.0671 99.4562 43.1151 97.5902 43.2091V43.2101ZM171.257 43.6361C169.107 43.6361 167.194 43.1301 165.518 42.1201C163.842 41.0791 162.53 39.7211 161.581 38.0481C160.677 36.3928 160.204 34.5363 160.206 32.6501C160.206 30.2831 160.759 28.2311 161.866 26.4951C162.973 24.7271 164.38 23.3851 166.087 22.4701C167.795 21.5231 169.518 21.0501 171.257 21.0501C173.408 21.0501 175.321 21.5701 176.997 22.6121C178.641 23.5888 179.986 24.9971 180.886 26.6841C181.823 28.3112 182.314 30.1567 182.309 32.0341C182.309 34.4021 181.74 36.4701 180.602 38.2381C179.495 39.9741 178.088 41.3151 176.38 42.2621C174.673 43.1781 172.965 43.6361 171.257 43.6361ZM171.257 41.8841C173.408 41.8841 174.973 40.9681 175.953 39.1371C176.965 37.3071 177.471 34.9391 177.471 32.0351C177.471 29.3201 176.949 27.1111 175.906 25.4051C174.894 23.6701 173.344 22.8021 171.257 22.8021C169.076 22.8021 167.495 23.7021 166.514 25.5011C165.534 27.3001 165.044 29.6511 165.044 32.5561C165.044 35.2701 165.55 37.5121 166.562 39.2791C167.574 41.0161 169.139 41.8841 171.257 41.8841ZM194.261 43.8721C192.711 43.8721 191.383 43.3041 190.276 42.1681C189.17 41.0311 188.616 39.4061 188.616 37.2911V23.3701L185.865 23.4651C185.773 23.4658 185.682 23.4448 185.6 23.4036C185.517 23.3624 185.446 23.3022 185.391 23.2281C185.267 23.0468 185.201 22.832 185.201 22.6121C185.201 22.3281 185.249 22.0921 185.343 21.9021C185.47 21.6811 185.644 21.5551 185.865 21.5231C186.972 21.3031 187.826 20.9551 188.427 20.4821C189.059 19.9761 189.518 19.4401 189.802 18.8721C190.087 18.2721 190.435 17.3721 190.846 16.1721C191.004 15.7621 191.352 15.5571 191.889 15.5571C192.11 15.5571 192.332 15.6201 192.553 15.7471C192.774 15.8411 192.885 15.9991 192.885 16.2201L192.553 21.6181L198.103 21.2861H198.198C198.609 21.2861 198.814 21.5861 198.814 22.1861C198.814 22.5331 198.751 22.8651 198.624 23.1801C198.53 23.4651 198.403 23.6071 198.245 23.6071L192.933 23.4651V37.8591C192.933 38.9011 193.138 39.7691 193.549 40.4631C193.992 41.1581 194.703 41.5051 195.684 41.5051C196.664 41.5051 197.534 41.3311 198.292 40.9841C198.704 40.8261 198.956 40.7471 199.051 40.7471C199.273 40.7471 199.447 40.8421 199.573 41.0311C199.7 41.1891 199.826 41.4111 199.953 41.6941C199.987 41.7685 200.003 41.8495 200 41.9311C200 42.0571 199.905 42.1991 199.715 42.3571C198.798 42.9571 197.929 43.3521 197.107 43.5411C196.316 43.7611 195.367 43.8721 194.261 43.8721ZM117.597 42.9251C117.723 43.1151 117.913 43.2091 118.166 43.2091C119.809 43.1189 121.454 43.0716 123.099 43.0671C125.218 43.0671 127.194 43.1151 129.028 43.2091C129.132 43.2115 129.235 43.1865 129.327 43.1367C129.419 43.0868 129.496 43.0139 129.55 42.9251C129.676 42.7351 129.739 42.5151 129.739 42.2621C129.708 41.8841 129.629 41.6471 129.502 41.5521C129.407 41.4581 129.218 41.4101 128.933 41.4101H128.648C127.605 41.4101 126.862 41.3311 126.419 41.1731C125.976 41.0161 125.676 40.7311 125.518 40.3211C125.36 39.8791 125.281 39.1691 125.281 38.1911V23.4631H130.309C130.42 23.4626 130.528 23.4367 130.627 23.3874C130.725 23.3382 130.812 23.2669 130.878 23.1791C131.036 22.9901 131.115 22.7691 131.115 22.5161C131.083 22.1381 130.988 21.9011 130.83 21.8061C130.704 21.6801 130.498 21.6161 130.214 21.6161H125.281V18.7761C125.281 17.2611 125.344 15.9351 125.47 14.7981C125.588 13.6566 125.961 12.5563 126.561 11.5781C127.162 10.6001 128.095 10.1111 129.36 10.1111C129.505 10.1111 129.646 10.1191 129.782 10.1361C129.764 9.60562 129.799 9.07469 129.886 8.5511C129.822 8.54931 129.757 8.54831 129.692 8.5481C126.909 8.6111 124.743 9.6681 123.194 11.7211C121.676 13.7411 120.917 16.3771 120.917 19.6281V21.6171H118.071C117.66 21.6171 117.375 21.6641 117.217 21.7591C117.059 21.8221 116.964 22.0751 116.933 22.5161C116.933 22.7691 116.996 22.9901 117.122 23.1791C117.281 23.3691 117.486 23.4641 117.739 23.4641H120.917V38.1901C120.917 39.0431 120.885 39.6581 120.822 40.0371C120.791 40.3841 120.601 40.7001 120.253 40.9841C119.905 41.2681 119.32 41.4101 118.498 41.4101C118.087 41.4101 117.802 41.4581 117.644 41.5521C117.518 41.6151 117.439 41.8521 117.407 42.2621C117.407 42.5151 117.47 42.7361 117.597 42.9251Z" fill="#9C9C9C"/>
<path fill-rule="evenodd" clip-rule="evenodd" d="M142.952 9.865C142.952 10.5564 142.815 11.2409 142.55 11.8794C142.284 12.518 141.896 13.098 141.407 13.5865C140.917 14.0749 140.336 14.4622 139.697 14.7261C139.058 14.9901 138.374 15.1257 137.682 15.125C136.286 15.1261 134.946 14.5725 133.958 13.5862C132.97 12.5998 132.414 11.2613 132.412 9.865C132.413 9.17346 132.549 8.48879 132.815 7.85009C133.08 7.21139 133.468 6.63117 133.957 6.14255C134.447 5.65392 135.028 5.26647 135.667 5.00232C136.306 4.73816 136.991 4.60247 137.682 4.603C138.374 4.60234 139.059 4.73794 139.698 5.00205C140.337 5.26616 140.918 5.6536 141.407 6.14225C141.897 6.6309 142.285 7.21118 142.55 7.84994C142.815 8.4887 142.952 9.17342 142.952 9.865ZM137.682 12.495C138.028 12.4954 138.37 12.4277 138.69 12.2957C139.009 12.1637 139.3 11.9701 139.545 11.7259C139.789 11.4816 139.983 11.1916 140.116 10.8723C140.249 10.553 140.317 10.2107 140.317 9.865C140.317 9.51919 140.249 9.1768 140.116 8.85739C139.984 8.53798 139.79 8.24782 139.545 8.00348C139.3 7.75914 139.01 7.56542 138.69 7.43339C138.371 7.30136 138.028 7.2336 137.682 7.234C136.984 7.23373 136.315 7.51058 135.82 8.00371C135.326 8.49685 135.048 9.16594 135.047 9.864C135.048 10.5622 135.326 11.2316 135.82 11.7249C136.314 12.2183 136.984 12.4953 137.682 12.495ZM135.372 17.414V42.784C135.372 43.067 135.452 43.288 135.61 43.446C135.768 43.636 135.989 43.73 136.274 43.73C136.558 43.73 136.795 43.604 136.985 43.352C137.175 43.131 137.349 42.799 137.507 42.357C137.665 41.915 137.807 41.568 137.934 41.315H138.171C140.226 42.862 142.661 43.635 145.475 43.635C147.373 43.635 149.159 43.13 150.835 42.12C152.511 41.11 153.839 39.737 154.82 38C155.831 36.233 156.337 34.292 156.337 32.177C156.337 30.03 155.895 28.121 155.009 26.447C154.156 24.743 152.97 23.417 151.452 22.47C149.934 21.523 148.242 21.05 146.377 21.05C145.238 21.05 144.084 21.286 142.914 21.76C141.776 22.202 140.748 22.88 139.831 23.796H139.689V17.5C138.27 17.8685 136.776 17.8388 135.372 17.414ZM149.697 39.421C148.527 41.158 146.977 42.026 145.049 42.026C144.037 42.026 143.136 41.805 142.345 41.363C141.586 40.921 140.969 40.4 140.495 39.8C140.052 39.169 139.784 38.6 139.689 38.096V25.596C141.048 24.143 142.724 23.417 144.717 23.417C146.962 23.417 148.653 24.301 149.792 26.069C150.93 27.805 151.499 29.904 151.499 32.366C151.499 35.302 150.899 37.654 149.697 39.421ZM12.7002 0.366998C13.0357 0.127971 13.4373 -0.000488281 13.8492 -0.000488281C14.2611 -0.000488281 14.6628 0.127971 14.9982 0.366998C23.5582 6.471 27.4382 13.788 27.6832 24.287C27.7962 29.3 27.3132 33.89 25.8422 37.855C24.3322 41.823 21.6492 45.488 17.6992 48.584C17.4533 48.7751 17.1657 48.9055 16.8599 48.9646C16.5541 49.0237 16.2386 49.0098 15.9392 48.924C14.7292 48.577 14.5232 47.145 13.8492 46.253C13.1752 47.145 12.9712 48.576 11.7592 48.923C11.4599 49.0086 11.1447 49.0224 10.8391 48.9633C10.5334 48.9043 10.246 48.774 10.0002 48.583C6.05021 45.488 3.36621 41.823 1.85721 37.855C0.387214 33.89 -0.0967856 29.3 0.0162144 24.287C0.260214 13.788 4.14021 6.47 12.7002 0.366998ZM17.1262 44.062C19.5982 41.792 21.0882 39.317 22.1402 36.47C23.4652 32.99 23.8472 29.144 23.7322 24.379C23.5422 16.192 21.6222 10.865 15.8092 5.919V20.387C18.0822 20.971 19.1022 23.197 19.1022 25.647C19.1022 28.099 18.0822 30.325 15.8092 30.909V42.746C15.8092 42.746 16.8652 43.719 17.1262 44.062ZM10.5382 44.062C8.06621 41.792 6.61121 39.317 5.55821 36.47C4.23421 32.99 3.85221 29.144 3.96821 24.379C4.15821 16.209 6.06721 10.859 11.8562 5.919V20.387C9.58321 20.971 8.56221 23.197 8.56221 25.647C8.56221 28.099 9.58221 30.325 11.8562 30.909V42.746C11.8562 42.746 10.7902 43.731 10.5382 44.062ZM13.8322 23.017C13.1341 23.0165 12.4643 23.2932 11.9702 23.7864C11.476 24.2796 11.198 24.9489 11.1972 25.647C11.1972 27.101 12.3772 28.278 13.8322 28.278C14.5304 28.2785 15.2001 28.0018 15.6943 27.5086C16.1884 27.0154 16.4664 26.3461 16.4672 25.648C16.4672 24.195 15.2872 23.018 13.8322 23.018V23.017Z" fill="#9C9C9C"/>
</g>
<defs>
<clipPath id="clip0_6_53">
<rect width="200" height="49" fill="white"/>
</clipPath>
</defs>
</svg>

<svg width="200" height="49" fill="none" xmlns="http://www.w3.org/2000/svg"><g clip-path="url(#a)" fill="#9C9C9C"><path d="M54.381 44.014c-3.32 0-5.865-.568-7.636-1.704-1.74-1.168-2.609-2.873-2.609-5.114 0-1.136.38-2.068 1.138-2.794.791-.757 1.803-1.136 3.036-1.136.727.032 1.28.22 1.66.568.38.316.57.616.57.9 0 .031-.159.142-.475.331-.316.19-.6.474-.854.852-.253.38-.38.9-.38 1.563 0 1.484.444 2.636 1.33 3.457.916.79 2.323 1.183 4.22 1.183 1.297 0 2.435-.252 3.416-.757.98-.505 1.723-1.168 2.23-1.989.536-.852.805-1.736.805-2.652 0-1.136-.332-2.114-.996-2.935a7.801 7.801 0 0 0-2.37-2.036c-.95-.568-2.247-1.216-3.89-1.942-1.898-.852-3.43-1.625-4.6-2.32a9.897 9.897 0 0 1-2.99-2.746c-.822-1.168-1.233-2.604-1.233-4.309 0-2.746.932-4.798 2.798-6.155 1.898-1.358 4.38-2.036 7.447-2.036 2.403 0 4.49.505 6.261 1.515 1.803 1.01 2.704 2.494 2.704 4.45 0 1.137-.396 2.084-1.186 2.842-.759.726-1.755 1.09-2.988 1.09-.728-.033-1.28-.207-1.66-.522-.38-.347-.57-.663-.57-.947 0-.032.206-.142.617-.332a2.995 2.995 0 0 0 1.138-.852c.348-.379.522-.9.522-1.562 0-1.168-.458-2.084-1.375-2.747-.886-.663-2.024-.994-3.416-.994-1.928 0-3.399.458-4.41 1.373-.98.884-1.47 1.99-1.47 3.315 0 1.104.3 2.036.9 2.793.6.726 1.565 1.452 2.893 2.178a61.228 61.228 0 0 0 3.51 1.705c2.024.915 3.621 1.752 4.791 2.51a9.616 9.616 0 0 1 2.988 2.983c.822 1.23 1.234 2.762 1.234 4.592 0 1.58-.506 3.015-1.518 4.31-.98 1.262-2.325 2.256-4.032 2.982-1.676.726-3.526 1.09-5.55 1.09Zm24.013-.378c-2.15 0-3.858-.648-5.123-1.942-1.265-1.294-1.897-2.999-1.897-5.114v-8.76c0-.82-.032-1.42-.095-1.799-.03-.378-.22-.71-.57-.994-.347-.284-.932-.426-1.754-.426-.38 0-.664-.047-.854-.142-.19-.126-.284-.395-.284-.805 0-.19.063-.363.19-.52.126-.19.316-.3.57-.332 1.991-.285 3.7-.695 5.121-1.232.443-.157.806-.252 1.091-.284h.142c.506 0 .76.3.76.9v14.347c0 1.452.458 2.573 1.375 3.362a4.844 4.844 0 0 0 3.178 1.136c1.486 0 2.75-.363 3.794-1.089s1.74-1.452 2.087-2.178v-9.943c0-.82-.03-1.42-.094-1.8-.032-.378-.222-.71-.57-.994-.348-.284-.933-.426-1.755-.426-.38 0-.664-.047-.853-.142-.19-.126-.285-.395-.285-.805 0-.19.063-.363.19-.52.126-.19.316-.3.57-.332 1.991-.285 3.7-.695 5.122-1.232.442-.157.806-.252 1.09-.284h.143c.506 0 .76.3.76.9V38.57c0 1.863 1.248 2.794 3.746 2.794.537 0 .806.3.806.9 0 .441-.269.71-.806.804l-7.637.521c-.22 0-.348-.079-.38-.236-.03-.127-.047-.363-.047-.71V39.99h-.094a57.319 57.319 0 0 1-2.23 1.988c-.569.442-1.312.821-2.23 1.137-.885.347-1.944.52-3.177.52v.001Zm19.196-.426a.72.72 0 0 1-.57-.285 1.167 1.167 0 0 1-.19-.662c.032-.41.127-.648.285-.71.16-.095.443-.143.854-.143.822 0 1.407-.142 1.755-.426.348-.284.538-.616.569-.994.064-.38.095-.979.095-1.8V27.347c0-.82-.031-1.42-.095-1.8-.031-.378-.221-.71-.569-.993-.348-.284-.933-.427-1.755-.427-.38 0-.664-.047-.853-.142-.19-.126-.285-.394-.285-.805 0-.189.063-.363.19-.52.126-.19.316-.3.57-.332 2.054-.316 3.746-.726 5.074-1.23.538-.159.901-.254 1.091-.285h.142c.506 0 .759.3.759.9v2.935h.142c1.107-1.105 2.23-1.973 3.368-2.604 1.139-.663 2.166-.994 3.083-.994 1.044 0 1.866.394 2.467 1.183.632.758.948 1.642.948 2.652a3.76 3.76 0 0 1-.806 2.367c-.538.695-1.281 1.042-2.229 1.042a2.441 2.441 0 0 1-1.186-.284c-.316-.19-.49-.347-.522-.473.032-.063.19-.253.474-.569.285-.347.427-.74.427-1.183 0-.569-.158-1.026-.474-1.373-.285-.348-.68-.52-1.186-.52-.537 0-1.217.267-2.039.804-.823.505-1.629 1.152-2.419 1.941V38.19c0 .821.031 1.42.094 1.8.064.378.269.71.617.994.348.284.933.426 1.755.426h.285c.253 0 .442.048.569.142.126.095.205.332.237.71 0 .253-.063.474-.19.663-.126.19-.316.285-.569.285a97.409 97.409 0 0 0-4.98-.143 99.51 99.51 0 0 0-4.933.142v.001Zm73.667.426c-2.15 0-4.063-.506-5.739-1.516-1.676-1.04-2.988-2.399-3.937-4.072a11.238 11.238 0 0 1-1.375-5.398c0-2.367.553-4.419 1.66-6.155 1.107-1.768 2.514-3.11 4.221-4.025 1.708-.947 3.431-1.42 5.17-1.42 2.151 0 4.064.52 5.74 1.562a10.467 10.467 0 0 1 3.889 4.072 10.664 10.664 0 0 1 1.423 5.35c0 2.368-.569 4.436-1.707 6.204-1.107 1.736-2.514 3.077-4.222 4.024-1.707.916-3.415 1.374-5.123 1.374Zm0-1.752c2.151 0 3.716-.916 4.696-2.747 1.012-1.83 1.518-4.198 1.518-7.102 0-2.715-.522-4.924-1.565-6.63-1.012-1.735-2.562-2.603-4.649-2.603-2.181 0-3.762.9-4.743 2.7-.98 1.798-1.47 4.15-1.47 7.054 0 2.714.506 4.956 1.518 6.723 1.012 1.737 2.577 2.605 4.695 2.605Zm23.004 1.988c-1.55 0-2.878-.568-3.985-1.704-1.106-1.137-1.66-2.762-1.66-4.877v-13.92l-2.751.094a.58.58 0 0 1-.474-.237 1.091 1.091 0 0 1-.19-.616c0-.284.048-.52.142-.71.127-.22.301-.347.522-.379 1.107-.22 1.961-.568 2.562-1.04.632-.507 1.091-1.043 1.375-1.61.285-.6.633-1.5 1.044-2.7.158-.41.506-.616 1.043-.616.221 0 .443.063.664.19.221.094.332.252.332.473l-.332 5.398 5.55-.332h.095c.411 0 .616.3.616.9 0 .347-.063.68-.19.994-.094.285-.221.427-.379.427l-5.312-.142V37.86c0 1.042.205 1.91.616 2.604.443.695 1.154 1.042 2.135 1.042.98 0 1.85-.174 2.608-.52.412-.159.664-.238.759-.238.222 0 .396.095.522.284.127.158.253.38.38.663.034.075.05.155.047.237 0 .126-.095.268-.285.426-.917.6-1.786.995-2.608 1.184-.791.22-1.74.331-2.846.331Zm-76.664-.947c.126.19.316.284.569.284a94.72 94.72 0 0 1 4.933-.142c2.119 0 4.095.048 5.929.142a.6.6 0 0 0 .522-.284c.126-.19.189-.41.189-.663-.031-.378-.11-.615-.237-.71-.095-.094-.284-.142-.569-.142h-.285c-1.043 0-1.786-.079-2.229-.237-.443-.157-.743-.442-.901-.852-.158-.442-.237-1.152-.237-2.13V23.463h5.028a.718.718 0 0 0 .569-.284c.158-.189.237-.41.237-.663-.032-.378-.127-.615-.285-.71-.126-.126-.332-.19-.616-.19h-4.933v-2.84c0-1.515.063-2.84.189-3.978a7.666 7.666 0 0 1 1.091-3.22c.601-.978 1.534-1.467 2.799-1.467.145 0 .286.008.422.025a8.012 8.012 0 0 1 .104-1.585 7.866 7.866 0 0 0-.194-.003c-2.783.063-4.949 1.12-6.498 3.173-1.518 2.02-2.277 4.656-2.277 7.907v1.99h-2.846c-.411 0-.696.046-.854.141-.158.063-.253.316-.284.757 0 .253.063.474.189.663.159.19.364.285.617.285h3.178V38.19c0 .853-.032 1.468-.095 1.847-.031.347-.221.663-.569.947-.348.284-.933.426-1.755.426-.411 0-.696.048-.854.142-.126.063-.205.3-.237.71 0 .253.063.474.19.663Z"/><path fill-rule="evenodd" clip-rule="evenodd" d="M142.952 9.865a5.255 5.255 0 0 1-1.545 3.721 5.275 5.275 0 0 1-7.449 0 5.269 5.269 0 0 1-1.546-3.721 5.26 5.26 0 0 1 1.545-3.722 5.277 5.277 0 0 1 7.45 0 5.255 5.255 0 0 1 1.545 3.722Zm-5.27 2.63a2.634 2.634 0 0 0 2.635-2.63 2.62 2.62 0 0 0-.772-1.862 2.632 2.632 0 0 0-1.863-.769 2.636 2.636 0 0 0-2.635 2.63 2.635 2.635 0 0 0 2.635 2.631Zm-2.31 4.919v25.37c0 .283.08.504.238.662.158.19.379.284.664.284.284 0 .521-.126.711-.378.19-.221.364-.553.522-.995.158-.442.3-.789.427-1.042h.237c2.055 1.547 4.49 2.32 7.304 2.32 1.898 0 3.684-.505 5.36-1.515 1.676-1.01 3.004-2.383 3.985-4.12 1.011-1.767 1.517-3.708 1.517-5.823 0-2.147-.442-4.056-1.328-5.73-.853-1.704-2.039-3.03-3.557-3.977-1.518-.947-3.21-1.42-5.075-1.42-1.139 0-2.293.236-3.463.71-1.138.442-2.166 1.12-3.083 2.036h-.142V17.5a7.981 7.981 0 0 1-4.317-.086Zm14.325 22.007c-1.17 1.737-2.72 2.605-4.648 2.605-1.012 0-1.913-.221-2.704-.663-.759-.442-1.376-.963-1.85-1.563-.443-.631-.711-1.2-.806-1.704v-12.5c1.359-1.453 3.035-2.179 5.028-2.179 2.245 0 3.936.884 5.075 2.652 1.138 1.736 1.707 3.835 1.707 6.297 0 2.936-.6 5.288-1.802 7.055ZM12.7.367a1.98 1.98 0 0 1 2.298 0c8.56 6.104 12.44 13.421 12.685 23.92.113 5.013-.37 9.603-1.84 13.568-1.51 3.968-4.194 7.633-8.144 10.729a1.98 1.98 0 0 1-1.76.34c-1.21-.347-1.416-1.779-2.09-2.671-.674.892-.878 2.323-2.09 2.67a1.98 1.98 0 0 1-1.759-.34c-3.95-3.095-6.634-6.76-8.143-10.728C.387 33.89-.097 29.3.017 24.287.26 13.788 4.14 6.47 12.7.367Zm4.426 43.695c2.472-2.27 3.962-4.745 5.014-7.592 1.325-3.48 1.707-7.326 1.592-12.091-.19-8.187-2.11-13.514-7.923-18.46v14.468c2.273.584 3.293 2.81 3.293 5.26 0 2.452-1.02 4.678-3.293 5.262v11.837s1.056.973 1.317 1.316Zm-6.588 0c-2.472-2.27-3.927-4.745-4.98-7.592-1.324-3.48-1.706-7.326-1.59-12.091.19-8.17 2.1-13.52 7.888-18.46v14.468c-2.273.584-3.294 2.81-3.294 5.26 0 2.452 1.02 4.678 3.294 5.262v11.837s-1.066.985-1.318 1.316Zm3.294-21.045a2.633 2.633 0 0 0-2.635 2.63 2.633 2.633 0 0 0 2.635 2.631 2.633 2.633 0 0 0 2.635-2.63c0-1.453-1.18-2.63-2.635-2.63v-.001Z"/></g><defs><clipPath id="a"><path fill="#fff" d="M0 0h200v49H0z"/></clipPath></defs></svg>
